X:1
T:Rondinella
T:Rondinella
T:Gio.Girolamo Kapsperger
C:Gio.Girolamo Kapsperger
%%score 1 { 2 | 3 }
L:1/8
Q:1/4=120
M:4/4
K:F
V:1 treble nm="Soprano" snm="S"
V:2 treble nm="BC" snm="BC"
V:3 bass 
V:1
 A2 B2 c4- | c2 c2 B3 B | A6 A2 | B2 A2 G4- | G2 F2 G3 A | F4 F4 | c2 c2 c4- | c2 c2 B3 B | A4 A4 | %9
w: Ron- di- nel-|* la pe- re-|gri- na,|che nel pia-|* ger si t'af-|fret- ti,|deh con- so-|* la- ti me-|schi- na,|
w: Che s'al pian-|* to'il Ciel t'in-|ni- ta,|nel ve- der|_ che l'om- br'as-|co- a,|cre- sce ta-|* ci- ta'e ro-|mi- ta,|
w: Dun- que bel-|* la gar- ru-|let- ta,|ch'al mio duol|_ si pron- ta|se- i,|se d'hor- ror|_ de- sio t'al-|let- ta,|
 B2 B2 B4- | B2 B2 A3 =B | G4 G4 :: G2 G2 G4- | G2 c2 B3 B | A4 A4 | F2 F2 G4- | G2 F2 E3 ^F | %17
w: ch'a- ma- reg-|* gi miei di-|let- ti.|Men- tr'io vo-|* tra que- ste|fo- glie,|ri- mem- bran-|* do le mie|
w: del- la not-|* te te- ne-|bro- sa.|Al tuo pian-|* to'an- cor con-|ten- de,|la stag- gion|_ ch'il duol ri-|
w: se ti lu-|* gni'ai pian- ti|mie- i.|Deh con- so-|* la- ti me-|schi- na,|gar- ru- let-|* ta pe- re-|
 D4 D4 :| %18
w: do- glie.|
w: pren- de.|
w: gri- na.|
V:2
 [FAd]2 [GB]2 [Ec]2 [DG]2 | [EG]2 [Ec]2 [FA]2 [CB]2 | [Ac]2 [GB]2 [Ac]2 [Gc]2 | %3
 [Fd]2 [Ac]2 [Gd]2 [EG]2 | [GB]2 [Ac]2 [Gd]2 [Ec]2 | [CA]4 [CA]4 | [Fc]2 [DB]2 [EA]2 [DB]2 | %7
 [EA]2 [FA]2 [DF]2 [Gc]2 | [^FA]2 [CA]2 [DA]2 [Fd]2 | [DB]2 [EA]2 [DF]2 [EB]2 | %10
 [FA]2 [Gd]2 [Gce]2 [^FAd]2 | [DG=B]4 [DGB]4 :: [EGc]2 [Fd]2 [GB]2 [Ac]2 | %13
 [GB]2 [EA]2 [Fd]2 [Ec]2 | [Ac]2 [DB]2 [Ec]2 [Ac]2 | [FA]2 [EG]2 [DG]2 [Ec]2 | %16
 [DB]2 [FA]2 [Bd]2 [Ec]2 | [^FAd]4 [FAd]4 :| %18
V:3
 D,2 G,2 A,2 B,2 | C2 C,2 D,2 E,2 | F,2 G,2 F,2 E,2 | D,2 C,2 B,,2 C,2 | D,2 A,,2 B,,2 C,2 | %5
 F,,4 F,,4 | F,2 G,2 A,2 B,2 | A,2 F,2 B,,2 C,2 | D,2 E,2 ^F,2 D,2 | G,,2 A,,2 B,,2 C,2 | %10
 D,2 B,,2 C,2 D,2 | G,,4 G,,4 :: C,2 D,2 E,2 F,2 | E,2 A,2 B,2 C2 | F,2 G,2 A,2 F,2 | %15
 D,2 C,2 B,,2 A,,2 | G,,2 D,2 G,,2 A,,2 | D,4 D,4 :| %18

